X:41
T:Highlander's Jig/Forest Glen/
T:Cold Winds from Ben Wyviss
M:6/8
L:1/8
K:D
d|: "A"cBA ecA | "D"fdf "A"ecA | cBA "D"efg | "G"BGB "(E7)"BdB|
|"A"cBA ecA | "D"fdf "A"ecA | cec "G"dBG | "A"BAA A3 :|
ce|: "A"a2f "E"^g2e | "D"fdf "A"ecA | "D"a2f "G"=g2d | BGB "E7"B2b|
|"A"afa "E"^geg | "D"fdf "A"ecA | cec "G"dBG | "A"BAA A :|
